X: 893
T: Behind the Haystack
N:"Collected by F.O'Neill"
B:O'Neill's 893
Z:Transcribed by Dan G. Petersen, dangp@post6.tele.dk
M:6/8
L:1/8
K:G
d|efe edB|def gfe|dBA ABA|dBA ABd|
efe edB|def gfe|dBG GAG|dBG G2:|
d|gbg faf|ege dBG|dBA ABA|dBA ABd|
gbg faf|ege dBG|dBG GAG|dBG G2:|
d|g2a bge|g2a bge|dBA ABA|dBA ABd|
g2a bge|g2a bge|dBG GAG|dBG G2:|


